icons/svg/functional-icons/hazard_avalanche.svg

<?xml version="1.0" encoding="UTF-8" standalone="no"?>
<svg
   xmlns:dc="http://purl.org/dc/elements/1.1/"
   xmlns:cc="http://creativecommons.org/ns#"
   xmlns:rdf="http://www.w3.org/1999/02/22-rdf-syntax-ns#"
   xmlns:svg="http://www.w3.org/2000/svg"
   xmlns="http://www.w3.org/2000/svg"
   xmlns:sodipodi="http://sodipodi.sourceforge.net/DTD/sodipodi-0.dtd"
   xmlns:inkscape="http://www.inkscape.org/namespaces/inkscape"
   width="580"
   height="580"
   id="svg2"
   version="1.1"
   inkscape:version="0.91 r13725"
   sodipodi:docname="hazard_avalanche.svg">
  <defs
     id="defs13" />
  <sodipodi:namedview
     pagecolor="#ffffff"
     bordercolor="#666666"
     borderopacity="1"
     objecttolerance="10"
     gridtolerance="10"
     guidetolerance="10"
     inkscape:pageopacity="0"
     inkscape:pageshadow="2"
     inkscape:window-width="1920"
     inkscape:window-height="1006"
     id="namedview11"
     showgrid="false"
     inkscape:zoom="0.81379307"
     inkscape:cx="317.22515"
     inkscape:cy="346.40509"
     inkscape:window-x="1920"
     inkscape:window-y="0"
     inkscape:window-maximized="1"
     inkscape:current-layer="svg2"
     inkscape:snap-center="true"
     inkscape:snap-object-midpoints="true" />
  <metadata
     id="metadata2975">image/svg+xmlen<rdf:RDF>
  <cc:Work
     rdf:about="">
    <dc:format>image/svg+xml</dc:format>
    <dc:type
       rdf:resource="http://purl.org/dc/dcmitype/StillImage" />
    <dc:title />
  </cc:Work>
</rdf:RDF>
</metadata>
  <g
     id="g5"
     transform="matrix(1.7470777,0,0,1.7471252,-216.65253,-222.73058)"
     style="fill:#000000;fill-opacity:1;stroke:none">
    <title
       id="title7">Layer 1</title>
    <g
       id="g1327"
       style="fill:#000000;fill-opacity:1;stroke:none" />
    <path
       style="fill:#000000;fill-opacity:1;fill-rule:evenodd;stroke:none"
       d="M 288.21875,150.3811 A 32.25812,32.25812 0 0 0 262,166.47485 l -122.9375,212.875 a 32.25812,32.25812 0 0 0 27.90625,48.375 l 246,0.1875 a 32.25812,32.25812 0 0 0 27.96875,-48.375 L 317.875,166.47485 A 32.25812,32.25812 0 0 0 288.21875,150.3811 Z"
       id="path2990"
       inkscape:connector-curvature="0" />
  </g>
  <path
     style="color:#000000;display:inline;overflow:visible;visibility:visible;fill:#fff200;fill-opacity:1;fill-rule:nonzero;stroke:none;marker:none;enable-background:accumulate"
     d="M 74.866653,471.02372 C 70.661784,463.90823 75.540059,450.183 75.540059,450.183 L 275.74202,103.38966 c 0,0 8.67708,-17.018819 16.87775,-16.960807 8.20067,0.05801 17.57483,18.168297 17.57483,18.168297 l 197.82527,342.67643 c 0,0 7.43258,15.49307 3.20786,23.08346 -4.22471,7.59039 -16.38682,8.02322 -16.38682,8.02322 L 94.366758,477.96464 c 0,0 -15.295235,0.17457 -19.500105,-6.94092 z"
     id="path3788"
     inkscape:connector-curvature="0"
     sodipodi:nodetypes="zcczcczccz" />
  <path
     style="fill:#000000;fill-opacity:1;stroke:none"
     d="m 357.50623,244.2563 -12.33728,30.22122 -13.95978,41.2261 c 0,0 -15.01842,14.98108 -25.65738,38.19337 -10.63897,23.21227 5.76782,46.72035 -31.95191,54.45777 -12.31115,2.52537 -27.67472,20.45615 -34.43871,28.2432 -7.2709,8.37063 -8.93295,13.10671 -9.04397,17.60095 l 250.51784,0.27827 z"
     id="path3756"
     inkscape:connector-curvature="0"
     sodipodi:nodetypes="cccsssccc" />
  <path
     style="fill:none;stroke:#000000;stroke-width:21.81682777;stroke-linecap:round;stroke-linejoin:round;stroke-miterlimit:4;stroke-dasharray:none;stroke-opacity:1"
     d="m 336.15869,229.68223 c -96.79716,192.64056 -118.31412,217.865 -162.03972,197.53845 -20.08072,-9.33486 -17.80077,-27.23169 -15.95488,-37.23128 4.8458,-26.25096 45.91598,-40.40044 47.40912,-17.05205"
     id="path3785"
     inkscape:connector-curvature="0"
     sodipodi:nodetypes="cssc" />
  <path
     style="color:#000000;display:inline;overflow:visible;visibility:visible;fill:none;stroke:#000000;stroke-width:21.81682777;stroke-linecap:round;stroke-linejoin:round;stroke-miterlimit:4;stroke-dasharray:none;stroke-dashoffset:0;stroke-opacity:1;marker:none;enable-background:accumulate"
     d="m 310.21254,188.89125 c -25.65005,57.91701 -45.04745,102.53857 -77.12291,149.00238"
     id="path3787"
     inkscape:connector-curvature="0"
     sodipodi:nodetypes="cc" />
  <path
     style="color:#000000;display:inline;overflow:visible;visibility:visible;fill:none;stroke:#000000;stroke-width:21.81682777;stroke-linecap:round;stroke-linejoin:round;stroke-miterlimit:4;stroke-dasharray:none;stroke-dashoffset:0;stroke-opacity:1;marker:none;enable-background:accumulate"
     d="m 171.23539,357.58848 c -9.30051,-40.55949 26.35524,-58.49674 38.13234,-45.19422"
     id="path3806"
     inkscape:connector-curvature="0"
     sodipodi:nodetypes="cc" />
</svg>

<svg width="580" height="580" viewBox="0 0 580 580" fill="none" xmlns="http://www.w3.org/2000/svg">
<path fill-rule="evenodd" clip-rule="evenodd" d="M286.888 40.0039C277.515 40.5055 268.416 43.3401 260.417 48.2504C252.418 53.1607 245.772 59.9912 241.082 68.1217L26.3004 440.041C21.3615 448.604 18.7618 458.316 18.7622 468.201C18.7626 478.087 21.3631 487.798 26.3026 496.361C31.2422 504.924 38.347 512.037 46.9041 516.986C55.4613 521.935 65.1696 524.547 75.0548 524.558L504.836 524.886C514.73 524.894 524.453 522.296 533.025 517.355C541.597 512.413 548.718 505.302 553.67 496.736C558.622 488.17 561.232 478.451 561.238 468.556C561.243 458.662 558.643 448.94 553.7 440.369L338.7 68.1217C333.501 59.1088 325.908 51.7111 316.763 46.7483C307.618 41.7854 297.278 39.4511 286.888 40.0039V40.0039Z" fill="black"/>
<path d="M74.8666 471.024C70.6618 463.908 75.54 450.183 75.54 450.183L275.742 103.39C275.742 103.39 284.419 86.3708 292.62 86.4289C300.82 86.4869 310.195 104.597 310.195 104.597L508.02 447.274C508.02 447.274 515.452 462.767 511.228 470.357C507.003 477.947 494.841 478.38 494.841 478.38L94.3667 477.965C94.3667 477.965 79.0715 478.139 74.8666 471.024V471.024Z" fill="#FFF200"/>
<path d="M357.506 244.256L345.169 274.478L331.209 315.704C331.209 315.704 316.191 330.685 305.552 353.897C294.913 377.109 311.32 400.617 273.6 408.355C261.289 410.88 245.925 428.811 239.161 436.598C231.89 444.969 230.228 449.705 230.117 454.199L480.635 454.477L357.506 244.256Z" fill="black"/>
<path d="M336.158 229.682C239.361 422.323 217.844 447.547 174.119 427.221C154.038 417.886 156.318 399.989 158.164 389.989C163.01 363.738 204.08 349.589 205.573 372.937" stroke="black" stroke-width="21.8168" stroke-linecap="round" stroke-linejoin="round"/>
<path d="M310.213 188.891C284.563 246.808 265.165 291.43 233.09 337.893" stroke="black" stroke-width="21.8168" stroke-linecap="round" stroke-linejoin="round"/>
<path d="M171.236 357.588C161.935 317.029 197.591 299.091 209.368 312.394" stroke="black" stroke-width="21.8168" stroke-linecap="round" stroke-linejoin="round"/>
</svg>
